X:12
T:Mazurka Grand Fris
C:Trad.
R:Mazurka
S:Hurdy Gurdy workshop with Eric Raillard at Norwich02
Z:Dave Holland
M:3/4
L:1/8
K:G
G>A|B2 B>A G>B|d4 e>d|A2 A>B c>d|B2 G2 G>A|
B2 B>A G>B|d4 e>d|A2 A>c B>A|G4:|
B>d|g2 g>f e>d|f4 A>B|c2 c>d e>f|e2d2 B>d|
g2 g>f e>d|f4 A>B|c2 d>c B>A|G4:|
